X: 3257
T: Skotsk med Vals
B:[[Notböcker/Melodier til gamle danske Almuedanse for Violin solo]]
O:Danmark
Z:Søren Bak Vestergaard
M: 2/4
L: 1/8
K: G
g2 Bd|g2 bg|d2 gd|(Bd) BG|DEFG|ABcA|\
GFEF|G2 z2:| |:[K: D]vABA^G|ABcd|efge|dcBA|\
dcBA|B2 (ge)|dcBc|1 d2 z2:|2 d2 |:[M: 3/8][K: G](d/c/)|B(B/A/)B/c/|d2 ^d|\
e2 c|A2 (a/g/)|f(f/e/)f/g/|a2 f|(gb)a|1 g z:|2 g2 z|]
(:musicend:)
(:music:)
